X: 9
T: My Darling Asleep
R: jig
M: 6/8
L: 1/8
K: Dmaj
|:fed cAA | BGB AFA | DFA daf |"1" gfg eag |
fed cAA | BGB AFA | DFA daf |1 gec d2e :|2 gec d2A |
|:dfa afa | dfa bag | fef daf |"1" gfg eag |
fed cAA | BGB AFA | DFA dfa |1 gec d2A :|2 gec d2e |
P: Variation
|"1"gfg bag |


Tune 76	Setting 12563

